X: 17876
T: Horse's Bransle
R: polka
M: 2/4
K: Gdorian
G>A BB|cB Ac|BA GF|E2 D2|
G>A BB|cB Ac|BG AF|1 G3 D:|2 G3 d||
|:dc/B/ AB|cB/A/ GB|AG FG|A3 d|
dc/B/ AB|cB/A/ GB|AG GF|G3 d:|
BA/G/ BA/G/|FG A2|DE FG|AB AG|
BA/G/ BA/G/|FG A2|DE FG|GF G2:|

